icons/app-window.svg

<svg width="24" height="24" viewBox="0 0 24 24" fill="none" xmlns="http://www.w3.org/2000/svg">
<path d="M22 9V15C22 18.3137 19.3137 21 16 21H8C4.68629 21 2 18.3137 2 15V9M22 9C22 5.68629 19.3137 3 16 3H11.5M22 9C18.3333 9 15.1667 9 11.5 9M11.5 3H8C7.65929 3 7.32521 3.0284 7 3.08296C4.16229 3.55904 2 6.027 2 9M11.5 9C10.1667 9 8.33333 9 7 9L2 9M7 9V3.08296M11.5 9V3" stroke="black" stroke-width="2" stroke-linecap="round" stroke-linejoin="round"/>
</svg>

<svg xmlns="http://www.w3.org/2000/svg" width="24" height="24" viewBox="0 0 24 24" fill="none" stroke="currentColor" stroke-width="2" stroke-linecap="round" stroke-linejoin="round">
<path d="M22 9v6a6 6 0 0 1-6 6H8a6 6 0 0 1-6-6V9m20 0a6 6 0 0 0-6-6h-4.5M22 9H11.5m0-6H8q-.511 0-1 .083A6 6 0 0 0 2 9m9.5 0H2m5 0V3.083M11.5 9V3"/>
</svg>
